X: 7610
T: Coil The Hawser
R: reel
M: 4/4
K: Adorian
|:BA|GABc d2 ef|gB B2 gB B2|AGGA G2 Bd|eAAB c2:|
|:BA|ggaf g2 ef|gedc BG G2|ggaf ef|gAAB c2:|

